X:71
%%score 1 2
T:Go no more a rushing
M:C
L:1/8
K:Bb
V:1 clef-treble
V:2 clef-bass octave=-1
V:1
GABc[^Fd]2G2&D4x4|[CEG]2[A,D^F]2[B,DG]4|Bcde[Af]2B2|[EGB]2[CFA]2[DFB]4|Bcde[Ff]2[Fd]2&F4x4|
w:Go no more a rushing,|||||
V:2
[GB]4[DA]2[EG]2|C2D2G,4|[GB]4[Fc]2[GB]2|E2F2B,4|[Bd]4[Ac]2B2|
V:1
[Gc]BAG^F2D2|[DG]A[DGB]c[^FAd]2G2|[CEG]2[A,D^F]2[B,DG]4||"^f"d2d2d2ef&B8-|g2[Beg]2[Bf]4&B2x6|"^p"c2c2c2df&A8|
V:2
[EG]4[DA]2[C^F]2|[B,G]2G,2D,2E,2|C,2D,2G,4||B8-&B,2B,2B,2CD|B2x6&E2[EB]2[DB]4|[Fc]8
V:1
[cf]edc[Bd]4&F4F4|"^f"[^FAd]DDD[DF]3F|[DG]A[DGB]c[D^FA]2D2|[DG]A[DGB]c[^FA]2G2|[CEG]2[A,D^F]2[B,DG]4||
V:2
A,4B,4|D4C4|B,2G,2D2C2|B,2G,2D,2E,2|C,2D,2G,4||

